images/facebook.svg

<svg width="40" height="40" viewBox="0 0 40 40" fill="none" xmlns="http://www.w3.org/2000/svg">
<path d="M40 20C40 25.5228 37.7614 30.5228 34.1421 34.1421C30.5228 37.7614 25.5228 40 20 40C14.4772 40 9.47715 37.7614 5.85786 34.1421C2.23858 30.5228 0 25.5228 0 20C0 14.4772 2.23858 9.47715 5.85786 5.85786C9.47715 2.23858 14.4772 0 20 0C25.5228 0 30.5228 2.23858 34.1421 5.85786C37.7614 9.47715 40 14.4772 40 20Z" fill="#4D5AE5"/>
<g clip-path="url(#clip0_561202_1297)">
<path d="M22.6647 14.6565H24.1254V12.1125C23.8734 12.0779 23.0067 11.9999 21.9974 11.9999C19.8914 11.9999 18.4487 13.3245 18.4487 15.7592V17.9999H16.1247V20.8439H18.4487V27.9999H21.298V20.8445H23.528L23.882 18.0005H21.2974V16.0412C21.298 15.2192 21.5194 14.6565 22.6647 14.6565Z" fill="#F4F4FD"/>
</g>
<defs>
<clipPath id="clip0_561202_1297">
<rect width="16" height="16" fill="white" transform="translate(12 11.9999)"/>
</clipPath>
</defs>
</svg>

<svg xmlns="http://www.w3.org/2000/svg" width="40" height="40" fill="none"><path fill="#4D5AE5" d="M40 20a19.937 19.937 0 0 1-5.858 14.142A19.937 19.937 0 0 1 20 40a19.937 19.937 0 0 1-14.142-5.858A19.937 19.937 0 0 1 0 20 19.938 19.938 0 0 1 5.858 5.858 19.938 19.938 0 0 1 20 0a19.937 19.937 0 0 1 14.142 5.858A19.937 19.937 0 0 1 40 20Z"/><g clip-path="url(#a)"><path fill="#F4F4FD" d="M22.665 14.656h1.46v-2.543A18.885 18.885 0 0 0 21.997 12c-2.106 0-3.548 1.325-3.548 3.76V18h-2.324v2.844h2.324V28h2.849v-7.155h2.23L23.882 18h-2.585v-1.959c.001-.822.222-1.385 1.368-1.385Z"/></g><defs><clipPath id="a"><path fill="#fff" d="M12 12h16v16H12z"/></clipPath></defs></svg>
